assets/icons/24px/outline/internet-browser-24px.svg

<svg width="24" height="24" viewBox="0 0 24 24" fill="none" xmlns="http://www.w3.org/2000/svg">
<circle cx="12" cy="12" r="9" stroke="white" stroke-width="2"/>
<path fill-rule="evenodd" clip-rule="evenodd" d="M11.3895 10.6487C11.0931 10.8405 10.8406 11.093 10.6487 11.3895L7.68594 15.9684C7.53955 16.1946 7.8054 16.4605 8.03164 16.3141L12.6105 13.3513C12.907 13.1594 13.1595 12.907 13.3513 12.6105L16.3141 8.0316C16.4605 7.80536 16.1946 7.53951 15.9684 7.6859L11.3895 10.6487ZM11 13C11.5523 13.5523 12.4477 13.5523 13 13C13.5523 12.4477 13.5523 11.5523 13 11C12.4477 10.4477 11.5523 10.4477 11 11C10.4477 11.5523 10.4477 12.4477 11 13Z" fill="white"/>
<path d="M10.6487 11.3895L10.229 11.1179L10.229 11.1179L10.6487 11.3895ZM11.3895 10.6487L11.1179 10.2289L11.1179 10.2289L11.3895 10.6487ZM7.68594 15.9684L7.26615 15.6967L7.26615 15.6967L7.68594 15.9684ZM8.03164 16.3141L8.30327 16.7339L8.30327 16.7339L8.03164 16.3141ZM12.6105 13.3513L12.3389 12.9315L12.3389 12.9315L12.6105 13.3513ZM13.3513 12.6105L12.9315 12.3388L12.9315 12.3388L13.3513 12.6105ZM16.3141 8.0316L15.8943 7.75998L16.3141 8.0316ZM15.9684 7.6859L15.6968 7.26611L15.6968 7.26611L15.9684 7.6859ZM11.0685 11.6611C11.222 11.4239 11.424 11.222 11.6612 11.0685L11.1179 10.2289C10.7621 10.4591 10.4592 10.7621 10.229 11.1179L11.0685 11.6611ZM8.10572 16.24L11.0685 11.6611L10.229 11.1179L7.26615 15.6967L8.10572 16.24ZM7.76002 15.8943C7.98626 15.7479 8.25211 16.0137 8.10572 16.24L7.26615 15.6967C6.82698 16.3755 7.62455 17.173 8.30327 16.7339L7.76002 15.8943ZM12.3389 12.9315L7.76002 15.8943L8.30327 16.7339L12.8821 13.7711L12.3389 12.9315ZM12.9315 12.3388C12.7781 12.576 12.5761 12.778 12.3389 12.9315L12.8821 13.7711C13.2379 13.5408 13.5409 13.2379 13.7711 12.8821L12.9315 12.3388ZM15.8943 7.75998L12.9315 12.3388L13.7711 12.8821L16.7339 8.30323L15.8943 7.75998ZM16.24 8.10568C16.0138 8.25207 15.7479 7.98622 15.8943 7.75998L16.7339 8.30323C17.1731 7.6245 16.3755 6.82694 15.6968 7.26611L16.24 8.10568ZM11.6612 11.0685L16.24 8.10568L15.6968 7.26611L11.1179 10.2289L11.6612 11.0685ZM12.6464 12.6465C12.2894 13.0035 11.7106 13.0035 11.3536 12.6465L10.6465 13.3536C11.394 14.1011 12.606 14.1011 13.3535 13.3536L12.6464 12.6465ZM12.6464 11.3536C13.0035 11.7106 13.0035 12.2894 12.6464 12.6465L13.3535 13.3536C14.1011 12.606 14.1011 11.394 13.3535 10.6465L12.6464 11.3536ZM11.3536 11.3536C11.7106 10.9966 12.2894 10.9966 12.6464 11.3536L13.3535 10.6465C12.606 9.89893 11.394 9.89893 10.6465 10.6465L11.3536 11.3536ZM11.3536 12.6465C10.9965 12.2894 10.9965 11.7106 11.3536 11.3536L10.6465 10.6465C9.89891 11.394 9.89891 12.606 10.6465 13.3536L11.3536 12.6465Z" fill="white"/>
</svg>

<svg width="24" height="24" fill="none" xmlns="http://www.w3.org/2000/svg"><circle cx="12" cy="12" r="9" stroke="#fff" stroke-width="2"/><path fill-rule="evenodd" clip-rule="evenodd" d="M11.39 10.649a2.501 2.501 0 0 0-.741.74l-2.963 4.58c-.146.226.12.492.346.345l4.579-2.963a2.5 2.5 0 0 0 .74-.74l2.963-4.58c.146-.226-.12-.491-.346-.345l-4.579 2.963zM11 13a1.414 1.414 0 1 0 2-2 1.414 1.414 0 0 0-2 2z" fill="#fff"/><path d="M10.649 11.39l-.42-.272.42.271zm.74-.741l-.271-.42.271.42zm-3.703 5.32l-.42-.272.42.271zm.346.345l.271.42-.271-.42zm4.579-2.963l-.272-.42.271.42zm.74-.74l-.42-.272.42.271zm2.963-4.58l-.42-.271.42.272zm-.346-.345l-.271-.42.271.42zm-4.9 3.975a2 2 0 0 1 .593-.592l-.543-.84a3 3 0 0 0-.889.889l.84.543zM8.107 16.24l2.963-4.579-.84-.543-2.963 4.579.84.543zm-.346-.346c.226-.146.492.12.346.346l-.84-.543c-.439.678.359 1.476 1.037 1.037l-.543-.84zm4.579-2.963L7.76 15.895l.543.84 4.58-2.963-.544-.84zm.592-.592a2 2 0 0 1-.592.592l.543.84a3 3 0 0 0 .89-.889l-.84-.543zm2.963-4.579l-2.963 4.579.84.543 2.963-4.579-.84-.543zm.346.346c-.226.146-.492-.12-.346-.346l.84.543c.44-.679-.359-1.476-1.037-1.037l.543.84zm-4.579 2.963l4.579-2.963-.543-.84-4.58 2.963.544.84zm.985 1.577a.914.914 0 0 1-1.292 0l-.707.708c.747.747 1.959.747 2.707 0l-.708-.707zm0-1.292a.914.914 0 0 1 0 1.293l.707.707a1.914 1.914 0 0 0 0-2.707l-.707.707zm-1.292 0a.914.914 0 0 1 1.292 0l.707-.707a1.914 1.914 0 0 0-2.707 0l.708.707zm0 1.293a.914.914 0 0 1 0-1.293l-.707-.707a1.914 1.914 0 0 0 0 2.707l.707-.707z" fill="#fff"/></svg>
